images/undomerge-revert3.svg

<?xml version="1.0"?>
<svg xmlns="http://www.w3.org/2000/svg" xmlns:xlink="http://www.w3.org/1999/xlink" width="941px" height="265px" viewBox="0 0 941 265" version="1.1">
    <!-- Generator: Sketch 56.3 (81716) - https://sketch.com -->
    <title>images/undomerge-revert3</title>
    <desc>Created with Sketch.</desc>
    <g id="07---Undo-Merge-(revert-3)" stroke="none" stroke-width="1" fill="none" fill-rule="evenodd">
        <g id="brown" transform="translate(10.000000, 116.000000)">
            <rect id="Rectangle-1" fill="#EFEFE7" fill-rule="evenodd" x="0" y="0" width="89" height="33" rx="16.5"/>
            <text stroke="none" font-family="Source Code Pro" font-size="12px" font-weight="900" fill="#979797" fill-opacity="1" text-anchor="middle" id="C6">
                <tspan fill="#808080" x="44.5" y="21" fill-opacity="1">C1</tspan>
            </text>
        </g>
        <path id="Line-2" d="M457.755736,168.72369 L501.569594,132.796326 L502.203674,133.569594 L458.389816,169.496957 L460.926134,172.590029 L451.113366,174.81704 L455.219418,165.630618 L457.755736,168.72369 Z" fill="#8F8981" fill-rule="nonzero"/>
        <path id="Line-3" d="M219.379261,149.517547 L264.203819,186.431889 L263.568111,187.203819 L218.743553,150.289477 L216.200724,153.377198 L212.114035,144.182146 L221.92209,146.429826 L219.379261,149.517547 Z" fill="#8F8981" fill-rule="nonzero"/>
        <g id="Line-+-brown-2" transform="translate(99.000000, 116.000000)">
            <path id="Line" d="M9,17 L46,17 L46,18 L9,18 L9,22 L-2.77555756e-16,17.5 L9,13 L9,17 Z" fill="#8F8981" fill-rule="nonzero"/>
            <g id="brown" transform="translate(30.000000, 0.000000)">
                <rect id="Rectangle-1" fill="#EFEFE7" fill-rule="evenodd" x="0" y="0" width="89" height="33" rx="16.5"/>
                <text stroke="none" font-family="Source Code Pro" font-size="12px" font-weight="900" fill="#979797" fill-opacity="1" text-anchor="middle" id="C6">
                    <tspan fill="#808080" x="44.5" y="21" fill-opacity="1">C2</tspan>
                </text>
            </g>
        </g>
        <g id="Line-+-brown-3" transform="translate(218.000000, 116.000000)">
            <path id="Line" d="M9,17 L46,17 L46,18 L9,18 L9,22 L-2.77555756e-16,17.5 L9,13 L9,17 Z" fill="#8F8981" fill-rule="nonzero"/>
            <g id="brown" transform="translate(30.000000, 0.000000)">
                <rect id="Rectangle-1" fill="#EFEFE7" fill-rule="evenodd" x="0" y="0" width="89" height="33" rx="16.5"/>
                <text stroke="none" font-family="Source Code Pro" font-size="12px" font-weight="900" fill="#979797" fill-opacity="1" text-anchor="middle" id="C6">
                    <tspan fill="#808080" x="44.5" y="21" fill-opacity="1">C5</tspan>
                </text>
            </g>
        </g>
        <g id="brown" transform="translate(248.000000, 169.000000)">
            <rect id="Rectangle-1" fill="#EFEFE7" fill-rule="evenodd" x="0" y="0" width="89" height="33" rx="16.5"/>
            <text stroke="none" font-family="Source Code Pro" font-size="12px" font-weight="900" fill="#979797" fill-opacity="1" text-anchor="middle" id="C6">
                <tspan fill="#808080" x="44.5" y="21" fill-opacity="1">C3</tspan>
            </text>
        </g>
        <path id="Line-6" d="M346,186 L383,186 L383,187 L346,187 L346,191 L337,186.5 L346,182 L346,186 Z" fill="#8F8981" fill-rule="nonzero"/>
        <g id="brown" transform="translate(367.000000, 169.000000)">
            <rect id="Rectangle-1" fill="#EFEFE7" fill-rule="evenodd" x="0" y="0" width="89" height="33" rx="16.5"/>
            <text stroke="none" font-family="Source Code Pro" font-size="12px" font-weight="900" fill="#979797" fill-opacity="1" text-anchor="middle" id="C6">
                <tspan fill="#808080" x="44.5" y="21" fill-opacity="1">C4</tspan>
            </text>
        </g>
        <g id="Line-+-brown-4" transform="translate(337.000000, 116.000000)">
            <path id="Line" d="M9,17 L46,17 L46,18 L9,18 L9,22 L-2.77555756e-16,17.5 L9,13 L9,17 Z" fill="#8F8981" fill-rule="nonzero"/>
            <g id="brown" transform="translate(30.000000, 0.000000)">
                <rect id="Rectangle-1" fill="#EFEFE7" fill-rule="evenodd" x="0" y="0" width="89" height="33" rx="16.5"/>
                <text stroke="none" font-family="Source Code Pro" font-size="12px" font-weight="900" fill="#979797" fill-opacity="1" text-anchor="middle" id="C6">
                    <tspan fill="#808080" x="44.5" y="21" fill-opacity="1">C6</tspan>
                </text>
            </g>
        </g>
        <path id="Line-10" d="M463,186 L500,186 L500,187 L463,187 L463,191 L454,186.5 L463,182 L463,186 Z" fill="#8F8981" fill-rule="nonzero"/>
        <g id="brown" transform="translate(484.000000, 169.000000)">
            <rect id="Rectangle-1" fill="#EFEFE7" fill-rule="evenodd" x="0" y="0" width="89" height="33" rx="16.5"/>
            <text stroke="none" font-family="Source Code Pro" font-size="12px" font-weight="900" fill="#979797" fill-opacity="1" text-anchor="middle" id="C6">
                <tspan fill="#808080" x="44.5" y="21" fill-opacity="1">C7</tspan>
            </text>
        </g>
        <g id="Line-11-+-brown-8" transform="translate(693.000000, 116.000000)">
            <path id="Line-11" d="M9,17 L46,17 L46,18 L9,18 L9,22 L-1.66533454e-16,17.5 L9,13 L9,17 Z" fill="#8F8981" fill-rule="nonzero"/>
            <g id="brown" transform="translate(30.000000, 0.000000)">
                <rect id="Rectangle-1" fill="#EFEFE7" fill-rule="evenodd" x="0" y="0" width="89" height="33" rx="16.5"/>
                <text stroke="none" font-family="Source Code Pro" font-size="12px" font-weight="900" fill="#979797" fill-opacity="1" text-anchor="middle" id="C6">
                    <tspan fill="#808080" x="44.5" y="21" fill-opacity="1">^^M</tspan>
                </text>
            </g>
        </g>
        <path id="Line-11" d="M821,133 L858,133 L858,134 L821,134 L821,138 L812,133.5 L821,129 L821,133 Z" fill="#8F8981" fill-rule="nonzero"/>
        <path id="Line-12" d="M581.998864,185.980022 C653.98315,185.663398 722.828369,183.242666 754.661188,177.302034 C760.75673,176.164486 767.183969,174.542326 773.903219,172.473232 C786.88649,168.475224 800.672103,162.906905 814.844888,156.167586 C825.468129,151.116116 835.693717,145.703405 845.147535,140.290814 C848.456102,138.396562 851.431665,136.637757 854.027502,135.059564 C854.935706,134.507402 855.731471,134.017324 856.408956,133.594975 C856.814935,133.341885 857.090962,133.167812 857.2312,133.0784 L857.6528,132.8096 L858.1904,133.6528 L857.7688,133.9216 C857.625747,134.012807 857.346864,134.188681 856.937983,134.44358 C856.25737,134.867879 855.458431,135.359912 854.546997,135.914037 C851.943867,137.496664 848.960783,139.259915 845.644394,141.158646 C836.169768,146.583149 825.922126,152.007534 815.274321,157.070685 C801.060829,163.829361 787.231662,169.415272 774.197517,173.428945 C767.443465,175.508757 760.979629,177.140153 754.844641,178.285063 C722.925226,184.241855 654.064286,186.66311 582.00109,186.980022 L582.009996,190.981068 L573.000001,186.501113 L581.989962,181.98109 L581.998864,185.980022 Z" fill="#8F8981" fill-rule="nonzero"/>
        <g id="brown" transform="translate(842.000000, 116.000000)">
            <rect id="Rectangle-1" fill="#EFEFE7" fill-rule="evenodd" x="0" y="0" width="89" height="33" rx="16.5"/>
            <text stroke="none" font-family="Source Code Pro" font-size="12px" font-weight="900" fill="#979797" fill-opacity="1" text-anchor="middle" id="C6">
                <tspan fill="#808080" x="44.5" y="21" fill-opacity="1">C8</tspan>
            </text>
        </g>
        <g id="Line-7-+-brown-5" transform="translate(456.000000, 116.000000)">
            <path id="Line-7" d="M9,17 L46,17 L46,18 L9,18 L9,22 L-2.77555756e-16,17.5 L9,13 L9,17 Z" fill="#8F8981" fill-rule="nonzero"/>
            <g id="brown" transform="translate(30.000000, 0.000000)">
                <rect id="Rectangle-1" fill="#EFEFE7" fill-rule="evenodd" x="0" y="0" width="89" height="33" rx="16.5"/>
                <text stroke="none" font-family="Source Code Pro" font-size="12px" font-weight="900" fill="#979797" fill-opacity="1" text-anchor="middle" id="C6">
                    <tspan fill="#808080" x="44.5" y="21" fill-opacity="1">M</tspan>
                </text>
            </g>
        </g>
        <path id="Line-8" d="M583,133 L620,133 L620,134 L583,134 L583,138 L574,133.5 L583,129 L583,133 Z" fill="#8F8981" fill-rule="nonzero"/>
        <g id="brown" transform="translate(604.000000, 116.000000)">
            <rect id="Rectangle-1" fill="#EFEFE7" fill-rule="evenodd" x="0" y="0" width="89" height="33" rx="16.5"/>
            <text stroke="none" font-family="Source Code Pro" font-size="12px" font-weight="900" fill="#979797" fill-opacity="1" text-anchor="middle" id="C6">
                <tspan fill="#808080" x="44.5" y="21" fill-opacity="1">^M</tspan>
            </text>
        </g>
        <g id="Line-4-+-ref-+-Line-4-+-ref-2" transform="translate(844.000000, 10.000000)">
            <g id="Line-4-+-ref" transform="translate(0.000000, 53.000000)">
                <path id="Line-4" d="M43,44 L43,8 L44,8 L44,44 L48,44 L43.5,53 L39,44 L43,44 Z" fill="#8F8981" fill-rule="nonzero"/>
                <g id="ref">
                    <rect id="Rectangle-2" fill="#F44D27" fill-rule="evenodd" x="0" y="0" width="85.1962617" height="33"/>
                    <text stroke="none" font-family="Source Code Pro" font-size="12px" font-weight="900" fill="#979797" fill-opacity="1" text-anchor="middle" id="master">
                        <tspan fill="#f0f0f0" x="42.59813085" y="20" fill-opacity="1">master</tspan>
                    </text>
                </g>
            </g>
            <g id="Line-4-+-ref-2">
                <path id="Line-4" d="M43,44 L43,8 L44,8 L44,44 L48,44 L43.5,53 L39,44 L43,44 Z" fill="#8F8981" fill-rule="nonzero"/>
                <g id="symref">
                    <rect id="Rectangle-2" fill="#00909A" fill-rule="evenodd" x="0" y="0" width="86" height="33"/>
                    <text stroke="none" font-family="Source Code Pro" font-size="12px" font-weight="900" fill="#979797" fill-opacity="1" text-anchor="middle" id="master">
                        <tspan fill="#f0f0f0" x="43" y="20" fill-opacity="1">HEAD</tspan>
                    </text>
                </g>
            </g>
        </g>
        <g id="Line-5-+-ref-2" transform="translate(485.000000, 202.000000)">
            <path id="Line-5" d="M43,36 L43,0 L44,0 L44,36 L48,36 L43.5,45 L39,36 L43,36 Z" fill="#8F8981" fill-rule="nonzero"/>
            <g id="ref" transform="translate(0.000000, 20.000000)">
                <rect id="Rectangle-2" fill="#F44D27" fill-rule="evenodd" x="0" y="0" width="106" height="33"/>
                <text stroke="none" font-family="Source Code Pro" font-size="12px" font-weight="900" fill="#979797" fill-opacity="1" text-anchor="middle" id="master">
                    <tspan fill="#f0f0f0" x="53" y="20" fill-opacity="1">topic</tspan>
                </text>
            </g>
        </g>
    </g>
</svg>

<?xml version="1.0" encoding="UTF-8"?>
<svg id="svg32237" version="1.1" viewBox="0 0 941 265" xmlns="http://www.w3.org/2000/svg" xmlns:cc="http://creativecommons.org/ns#" xmlns:dc="http://purl.org/dc/elements/1.1/" xmlns:rdf="http://www.w3.org/1999/02/22-rdf-syntax-ns#">
 <metadata id="metadata32243">
  <rdf:RDF>
   <cc:Work rdf:about="">
    <dc:format>image/svg+xml</dc:format>
    <dc:type rdf:resource="http://purl.org/dc/dcmitype/StillImage"/>
    <dc:title>images/undomerge-revert3</dc:title>
   </cc:Work>
  </rdf:RDF>
 </metadata>
 <!-- Generator: Sketch 56.3 (81716) - https://sketch.com -->
 <title id="title32099">images/undomerge-revert3</title>
 <desc id="desc32101">Created with Sketch.</desc>
 <g id="07---Undo-Merge-(revert-3)" fill="none" fill-rule="evenodd">
  <g id="brown" transform="translate(10 116)">
   <rect id="Rectangle-1" width="89" height="33" rx="16.5" fill="#EFEFE7" fill-rule="evenodd"/>
   <text id="C6" fill="#979797" font-family="Source Code Pro" font-size="12px" font-weight="700" text-anchor="middle"><tspan id="tspan32104" x="44.5" y="21" fill="#808080">C1</tspan></text>
  </g>
  <path id="Line-2" d="m457.76 168.72 43.814-35.927.63408.77327-43.814 35.927 2.5363 3.0931-9.8128 2.227 4.1061-9.1864 2.5363 3.0931z" fill="#8F8981" fill-rule="nonzero"/>
  <path id="Line-3" d="m219.38 149.52 44.825 36.914-.63571.77193-44.825-36.914-2.5428 3.0877-4.0867-9.1951 9.8081 2.2477-2.5428 3.0877z" fill="#8F8981" fill-rule="nonzero"/>
  <g id="Line-+-brown-2" transform="translate(99 116)">
   <path id="Line" d="m9 17h37v1h-37v4l-9-4.5 9-4.5v4z" fill="#8F8981" fill-rule="nonzero"/>
   <g id="g32117" transform="translate(30)">
    <rect id="rect32111" width="89" height="33" rx="16.5" fill="#EFEFE7" fill-rule="evenodd"/>
    <text id="text32115" fill="#979797" font-family="Source Code Pro" font-size="12px" font-weight="700" text-anchor="middle"><tspan id="tspan32113" x="44.5" y="21" fill="#808080">C2</tspan></text>
   </g>
  </g>
  <g id="Line-+-brown-3" transform="translate(218 116)">
   <path id="path32120" d="m9 17h37v1h-37v4l-9-4.5 9-4.5v4z" fill="#8F8981" fill-rule="nonzero"/>
   <g id="g32128" transform="translate(30)">
    <rect id="rect32122" width="89" height="33" rx="16.5" fill="#EFEFE7" fill-rule="evenodd"/>
    <text id="text32126" fill="#979797" font-family="Source Code Pro" font-size="12px" font-weight="700" text-anchor="middle"><tspan id="tspan32124" x="44.5" y="21" fill="#808080">C5</tspan></text>
   </g>
  </g>
  <g id="g32137" transform="translate(248 169)">
   <rect id="rect32131" width="89" height="33" rx="16.5" fill="#EFEFE7" fill-rule="evenodd"/>
   <text id="text32135" fill="#979797" font-family="Source Code Pro" font-size="12px" font-weight="700" text-anchor="middle"><tspan id="tspan32133" x="44.5" y="21" fill="#808080">C3</tspan></text>
  </g>
  <path id="Line-6" d="m346 186h37v1h-37v4l-9-4.5 9-4.5v4z" fill="#8F8981" fill-rule="nonzero"/>
  <g id="g32146" transform="translate(367 169)">
   <rect id="rect32140" width="89" height="33" rx="16.5" fill="#EFEFE7" fill-rule="evenodd"/>
   <text id="text32144" fill="#979797" font-family="Source Code Pro" font-size="12px" font-weight="700" text-anchor="middle"><tspan id="tspan32142" x="44.5" y="21" fill="#808080">C4</tspan></text>
  </g>
  <g id="Line-+-brown-4" transform="translate(337 116)">
   <path id="path32148" d="m9 17h37v1h-37v4l-9-4.5 9-4.5v4z" fill="#8F8981" fill-rule="nonzero"/>
   <g id="g32156" transform="translate(30)">
    <rect id="rect32150" width="89" height="33" rx="16.5" fill="#EFEFE7" fill-rule="evenodd"/>
    <text id="text32154" fill="#979797" font-family="Source Code Pro" font-size="12px" font-weight="700" text-anchor="middle"><tspan id="tspan32152" x="44.5" y="21" fill="#808080">C6</tspan></text>
   </g>
  </g>
  <path id="Line-10" d="m463 186h37v1h-37v4l-9-4.5 9-4.5v4z" fill="#8F8981" fill-rule="nonzero"/>
  <g id="g32166" transform="translate(484 169)">
   <rect id="rect32160" width="89" height="33" rx="16.5" fill="#EFEFE7" fill-rule="evenodd"/>
   <text id="text32164" fill="#979797" font-family="Source Code Pro" font-size="12px" font-weight="700" text-anchor="middle"><tspan id="tspan32162" x="44.5" y="21" fill="#808080">C7</tspan></text>
  </g>
  <g id="Line-11-+-brown-8" transform="translate(693 116)">
   <path id="Line-11" d="m9 17h37v1h-37v4l-9-4.5 9-4.5v4z" fill="#8F8981" fill-rule="nonzero"/>
   <g id="g32175" transform="translate(30)">
    <rect id="rect32169" width="89" height="33" rx="16.5" fill="#EFEFE7" fill-rule="evenodd"/>
    <text id="text32173" fill="#979797" font-family="Source Code Pro" font-size="12px" font-weight="700" text-anchor="middle"><tspan id="tspan32171" x="44.5" y="21" fill="#808080">^^M</tspan></text>
   </g>
  </g>
  <path id="path32178" d="m821 133h37v1h-37v4l-9-4.5 9-4.5v4z" fill="#8F8981" fill-rule="nonzero"/>
  <path id="Line-12" d="m582 185.98c71.984-.31662 140.83-2.7374 172.66-8.678 6.0955-1.1375 12.523-2.7597 19.242-4.8288 12.983-3.998 26.769-9.5663 40.942-16.306 10.623-5.0515 20.849-10.464 30.303-15.877 3.3086-1.8943 6.2841-3.6531 8.88-5.2312.9082-.55216 1.704-1.0422 2.3815-1.4646.40598-.25309.68201-.42716.82224-.51658l.4216-.2688.5376.8432-.4216.2688c-.14305.091207-.42194.26708-.83082.52198-.68061.4243-1.4796.91633-2.391 1.4705-2.6031 1.5826-5.5862 3.3459-8.9026 5.2446-9.4746 5.4245-19.722 10.849-30.37 15.912-14.213 6.7587-28.043 12.345-41.077 16.358-6.7541 2.0798-13.218 3.7112-19.353 4.8561-31.919 5.9568-100.78 8.378-172.84 8.695l.008906 4.001-9.01-4.48 8.99-4.52.008902 3.9989z" fill="#8F8981" fill-rule="nonzero"/>
  <g id="g32187" transform="translate(842 116)">
   <rect id="rect32181" width="89" height="33" rx="16.5" fill="#EFEFE7" fill-rule="evenodd"/>
   <text id="text32185" fill="#979797" font-family="Source Code Pro" font-size="12px" font-weight="700" text-anchor="middle"><tspan id="tspan32183" x="44.5" y="21" fill="#808080">C8</tspan></text>
  </g>
  <g id="Line-7-+-brown-5" transform="translate(456 116)">
   <path id="Line-7" d="m9 17h37v1h-37v4l-9-4.5 9-4.5v4z" fill="#8F8981" fill-rule="nonzero"/>
   <g id="g32196" transform="translate(30)">
    <rect id="rect32190" width="89" height="33" rx="16.5" fill="#EFEFE7" fill-rule="evenodd"/>
    <text id="text32194" fill="#979797" font-family="Source Code Pro" font-size="12px" font-weight="700" text-anchor="middle"><tspan id="tspan32192" x="44.5" y="21" fill="#808080">M</tspan></text>
   </g>
  </g>
  <path id="Line-8" d="m583 133h37v1h-37v4l-9-4.5 9-4.5v4z" fill="#8F8981" fill-rule="nonzero"/>
  <g id="g32206" transform="translate(604 116)">
   <rect id="rect32200" width="89" height="33" rx="16.5" fill="#EFEFE7" fill-rule="evenodd"/>
   <text id="text32204" fill="#979797" font-family="Source Code Pro" font-size="12px" font-weight="700" text-anchor="middle"><tspan id="tspan32202" x="44.5" y="21" fill="#808080">^M</tspan></text>
  </g>
  <g id="Line-4-+-ref-+-Line-4-+-ref-2" transform="translate(844 10)">
   <g id="Line-4-+-ref" transform="translate(0 53)">
    <path id="Line-4" d="m43 44v-36h1v36h4l-4.5 9-4.5-9h4z" fill="#8F8981" fill-rule="nonzero"/>
    <g id="ref">
     <rect id="Rectangle-2" width="85.196" height="33" fill="#F44D27" fill-rule="evenodd"/>
     <text id="master" fill="#979797" font-family="Source Code Pro" font-size="12px" font-weight="700" text-anchor="middle"><tspan id="tspan32210" x="42.59813085" y="20" fill="#f0f0f0">master</tspan></text>
    </g>
   </g>
   <g id="Line-4-+-ref-2">
    <path id="path32215" d="m43 44v-36h1v36h4l-4.5 9-4.5-9h4z" fill="#8F8981" fill-rule="nonzero"/>
    <g id="symref">
     <rect id="rect32217" width="86" height="33" fill="#00909A" fill-rule="evenodd"/>
     <text id="text32221" fill="#979797" font-family="Source Code Pro" font-size="12px" font-weight="700" text-anchor="middle"><tspan id="tspan32219" x="43" y="20" fill="#f0f0f0">HEAD</tspan></text>
    </g>
   </g>
  </g>
  <g id="Line-5-+-ref-2" transform="translate(485 202)">
   <path id="Line-5" transform="matrix(1 0 0 -1 -8e-8 45)" d="m43 36v-36h1v36h4l-4.5 9-4.5-9z" style="fill-rule:nonzero;fill:#8f8981"/>
   <g id="g32233" transform="translate(-1,20)">
    <rect id="rect32227" transform="scale(.83962 1)" width="106" height="33" style="fill-rule:evenodd;fill:#f44d27"/>
    <text id="text32231" transform="translate(-8.4783 -.074)" font-size="12px" font-weight="700" style="fill:#979797;font-family:'Source Code Pro';font-size:12px;font-weight:700;text-anchor:middle"><tspan id="tspan32229" x="53" y="20" style="fill:#f0f0f0">topic</tspan></text>
   </g>
  </g>
 </g>
</svg>
